X: 2
T: Down The Broom
R: reel
M: 4/4
L: 1/8
K: Ador
A2BG A2Bd|egdg eGGD|~G3D G2AB|cABA GEDE|
A2BG A2Bd|egdg eaae|gedB c2{B}cd|1egdB BAGE:|2egdB BAA2||
abae abae|gaba gede|~g3d g2Bd|gaba ged2|
abae abae|gaba gede|gedB c2{B}cd|1egdB BAA2:|2egdB BAGE||


Tune 514	Setting 29030

